X: 776
P: Longways for as many as will
M: 6/4
L: 1/4
K: D
dcB AFD | E3- E2A |\
dAd c/d/ec | d3 D2 |] E |\
"^*)"FDF B2c & FDB ^A2c |\
dcB B2^A | B3 c3 |\
dcB AGF | E/F/G/F/E/D/ C2A |\
dAd c/d/ec | d3 D2 |]

